svg/u1f6a8.svg

<svg viewBox="0 0 128 128" xmlns="http://www.w3.org/2000/svg">
  <g>
    <path d="M118.4,112.29c-0.54-2.88-2.62-18.81-2.62-18.81H12.22c0,0-2.08,15.93-2.62,18.81 C9.06,115.17,15.23,124,64,124S118.94,115.17,118.4,112.29z" fill="#82AEC0"/>
    <path d="M12.19,93.96c0-5.87,23.2-10.63,51.81-10.63s51.81,4.76,51.81,10.63s-23.2,11.6-51.81,11.6 S12.19,99.83,12.19,93.96z" fill="#E0E0E0"/>
    <path d="M97.78,16.32C94.94,7.27,85.48,4,63.99,4S33.05,7.27,30.21,16.32 c-5.72,18.23-10.86,75.71-10.86,75.71s4.47,7.49,44.65,7.49s44.66-7.48,44.66-7.48S103.5,34.55,97.78,16.32z" fill="#F44336"/>
    <path d="M19.34,92.14c0-4.6,19.99-8.33,44.66-8.33s44.66,3.73,44.66,8.33 s-19.99,9.09-44.66,9.09S19.34,96.74,19.34,92.14z" opacity="0.9" fill="#C62828"/>
    <radialGradient id="SVGID_1_" cx="64" cy="52.9026" gradientTransform="matrix(0.9913 0 0 0.9913 0.5582 0.5582)" gradientUnits="userSpaceOnUse" r="43.9732">
      <stop offset="0.5718" stop-color="#FF6E40"/>
      <stop offset="0.7682" stop-color="#FF7046" stop-opacity="0.5414"/>
      <stop offset="1" stop-color="#FF7555" stop-opacity="0"/>
    </radialGradient>
    <path d="M72.59,35.73L94.42,13.2c0.42-0.37,1.04,0.1,0.8,0.6L78.98,39.86 c-1.21,2.52-0.14,4.15,2.66,4.08l20.65-0.21c0.56-0.01,0.73,0.75,0.22,0.98l-18.84,7.26c-2.55,1.15-3.09,3.88-0.91,5.62 l23.49,16.94c0.44,0.35,0.08,1.04-0.46,0.89L79.06,64.35c-2.69-0.76-3.92,0.73-3.37,3.47l8.62,28.89c0.11,0.55-0.61,0.85-0.92,0.39 L68.68,71.05c-1.57-2.31-3.47-2.75-4.8-0.3L49.77,97.43c-0.27,0.49-1.01,0.26-0.96-0.3l7.29-28.79c0.28-2.78-1-3.36-3.6-2.34 L22.25,81.51c-0.52,0.2-0.94-0.45-0.54-0.84L47.09,59.6c2-1.95,1.91-4.08-0.74-4.97l-21.18-7.22c-0.53-0.18-0.43-0.95,0.12-0.99 l20.84,0.4c2.79-0.21,4.2-2.99,2.74-5.37L32.12,17.3c-0.29-0.48,0.28-1.01,0.73-0.68l22.34,19.4c2.27,1.63,4.26,1.48,4.67-1.28 l3.63-26c0.08-0.55,0.86-0.59,1-0.05l3.16,25.38C68.35,36.78,70.49,37.58,72.59,35.73z" fill="url(#SVGID_1_)"/>
    <path d="M65.85,34.06l9.36-16.89c0.28-0.48,1.02-0.23,0.95,0.32l-2.92,18.45c-0.34,2.77,1.2,3.98,3.82,3.02 l18.33-6.16c0.52-0.19,0.93,0.47,0.52,0.85L81.55,45.91c-2.05,1.9-1.69,4.66,0.94,5.61l18.32,6.21c0.52,0.19,0.41,0.96-0.15,0.99 l-19.52,0.39c-2.79,0.14-3.48,1.95-2.08,4.37l9.86,16.84c0.28,0.48-0.31,1-0.75,0.66l-14.73-12.2c-2.23-1.68-4.16-1.5-4.64,1.25 l-3.5,19.94c-0.1,0.55-0.88,0.57-1,0.03l-3.64-19.77c-0.62-2.72-2.02-2.86-4.16-1.07l-15.5,13.03c-0.43,0.36-1.04-0.13-0.78-0.62 l9.11-16.74c1.27-2.49,0.51-4.47-2.29-4.47l-19.66,0.25c-0.56,0-0.71-0.76-0.2-0.98l17.16-6.61c2.57-1.09,3.02-4.17,0.88-5.97 l-14.4-11.73c-0.43-0.36-0.05-1.04,0.48-0.88l18.17,5.44c2.67,0.82,4.51,0.04,4.02-2.71l-3.77-19.01c-0.1-0.55,0.63-0.83,0.93-0.37 l10.01,16.26C62.17,36.4,64.46,36.48,65.85,34.06z" fill="#FFD5CA"/>
  </g>
</svg>

<svg viewBox="0 0 128 128" xmlns="http://www.w3.org/2000/svg">
  <defs>
    <radialGradient id="SVGID_1_" cx="64.563099" cy="53.465699" gradientTransform="matrix(0.9913 0 0 0.9913 0 0)" gradientUnits="userSpaceOnUse" r="43.9732">
      <stop offset="0.5718" stop-color="#FF6E40"/>
      <stop offset="0.7682" stop-color="#FF7046" stop-opacity="0.5414"/>
      <stop offset="1" stop-color="#FF7555" stop-opacity="0"/>
    </radialGradient>
  </defs>
  <path d="M118.4,112.29 C117.86,109.41 115.78,93.48 115.78,93.48 L12.22,93.48 C12.22,93.48 10.14,109.41 9.6,112.29 C9.06,115.17 15.23,124 64,124 C112.77,124 118.94,115.17 118.4,112.29 Z" fill="#82AEC0"/>
  <path d="M12.19,93.96 C12.19,88.09 35.39,83.33 64,83.33 C92.61,83.33 115.81,88.09 115.81,93.96 C115.81,99.83 92.61,105.56 64,105.56 C35.39,105.56 12.19,99.83 12.19,93.96 Z" fill="#E0E0E0"/>
  <path d="M97.78,16.32 C94.94,7.27 85.48,4 63.99,4 C42.5,4 33.05,7.27 30.21,16.32 C24.49,34.55 19.35,92.03 19.35,92.03 C19.35,92.03 23.82,99.52 64,99.52 C104.18,99.52 108.66,92.04 108.66,92.04 C108.66,92.04 103.5,34.55 97.78,16.32 Z" fill="#F44336"/>
  <path d="M19.34,92.14 C19.34,87.54 39.33,83.81 64,83.81 C88.67,83.81 108.66,87.54 108.66,92.14 C108.66,96.74 88.67,101.23 64,101.23 C39.33,101.23 19.34,96.74 19.34,92.14 Z" fill="#C62828" opacity="0.9"/>
  <path d="M72.59,35.73 L94.42,13.2 C94.84,12.83 95.46,13.3 95.22,13.8 L78.98,39.86 C77.77,42.38 78.84,44.01 81.64,43.94 L102.29,43.73 C102.85,43.72 103.02,44.48 102.51,44.71 L83.67,51.97 C81.12,53.12 80.58,55.85 82.76,57.59 L106.25,74.53 C106.69,74.88 106.33,75.57 105.79,75.42 L79.06,64.35 C76.37,63.59 75.14,65.08 75.69,67.82 L84.31,96.71 C84.42,97.26 83.7,97.56 83.39,97.1 L68.68,71.05 C67.11,68.74 65.21,68.3 63.88,70.75 L49.77,97.43 C49.5,97.92 48.76,97.69 48.81,97.13 L56.1,68.34 C56.38,65.56 55.1,64.98 52.5,66 L22.25,81.51 C21.73,81.71 21.31,81.06 21.71,80.67 L47.09,59.6 C49.09,57.65 49,55.52 46.35,54.63 L25.17,47.41 C24.64,47.23 24.74,46.46 25.29,46.42 L46.13,46.82 C48.92,46.61 50.33,43.83 48.87,41.45 L32.12,17.3 C31.83,16.82 32.4,16.29 32.85,16.62 L55.19,36.02 C57.46,37.65 59.45,37.5 59.86,34.74 L63.49,8.74 C63.57,8.19 64.35,8.15 64.49,8.69 L67.65,34.07 C68.35,36.78 70.49,37.58 72.59,35.73 Z" fill="url(#SVGID_1_)"/>
  <path d="M65.85,34.06 L75.21,17.17 C75.49,16.69 76.23,16.94 76.16,17.49 L73.24,35.94 C72.9,38.71 74.44,39.92 77.06,38.96 L95.39,32.8 C95.91,32.61 96.32,33.27 95.91,33.65 L81.55,45.91 C79.5,47.81 79.86,50.57 82.49,51.52 L100.81,57.73 C101.33,57.92 101.22,58.69 100.66,58.72 L81.14,59.11 C78.35,59.25 77.66,61.06 79.06,63.48 L88.92,80.32 C89.2,80.8 88.61,81.32 88.17,80.98 L73.44,68.78 C71.21,67.1 69.28,67.28 68.8,70.03 L65.3,89.97 C65.2,90.52 64.42,90.54 64.3,90 L60.66,70.23 C60.04,67.51 58.64,67.37 56.5,69.16 L41,82.19 C40.57,82.55 39.96,82.06 40.22,81.57 L49.33,64.83 C50.6,62.34 49.84,60.36 47.04,60.36 L27.38,60.61 C26.82,60.61 26.67,59.85 27.18,59.63 L44.34,53.02 C46.91,51.93 47.36,48.85 45.22,47.05 L30.82,35.32 C30.39,34.96 30.77,34.28 31.3,34.44 L49.47,39.88 C52.14,40.7 53.98,39.92 53.49,37.17 L49.72,18.16 C49.62,17.61 50.35,17.33 50.65,17.79 L60.66,34.05 C62.17,36.4 64.46,36.48 65.85,34.06 Z" fill="#FFD5CA"/>
</svg>
